!!!COM:	de Orto, Marbrianus
!!!CDT:	~1460///-1529//
!!!OTL:	Kyrie De beata virgine
!!!AGN:	Mass section; Kyrie
!!!SCT:	Ort1007
!!!SCA:	Ort1007
!!!voices-OPR:	4
!!!voices:	4
**kern	**kern	**kern	**kern
*staff4	*staff3	*staff2	*staff1
*Ivox	*Ivox	*Ivox	*Ivox
*I"Bassus	*I"Tenor	*I"Altus	*I"Superius
*I'B	*I'T	*I'A	*I'S
*>[A,B,C]	*>[A,B,C]	*>[A,B,C]	*>[A,B,C]
*>A	*>A	*>A	*>A
*clefF4	*clefGv2	*clefGv2	*clefG2
*k[]	*k[]	*k[]	*k[]
*M3/1	*M3/1	*M3/1	*M3/1
*met(O)	*met(O)	*met(O)	*met(O)
!!section: Kyrie I
!!!OMD: Kyrie I
=1-	=1-	=1-	=1-
0.r	0D	2.D/	0.r
.	.	4E/	.
.	.	4F/	.
.	.	4G/	.
.	.	2.A/	.
.	1F	.	.
.	.	4B\	.
.	.	4c\	.
.	.	4d\	.
=2	=2	=2	=2
0.r	2G/	2e\	0.r
.	2.A/	2.f\	.
.	4G/	4e\	.
.	2F/	1d	.
.	1E	.	.
.	.	2c\	.
=3	=3	=3	=3
0.r	2D/	2d\	0.r
.	2.F/	2A/	.
.	.	4B\	.
.	4E/	4A/	.
.	2D/	4G/	.
.	.	4F/	.
.	1C	1E	.
=4	=4	=4	=4
0.r	2D/	2F/	0.r
.	2C/	2E/	.
.	2D/	2F/	.
.	2E/	2G/	.
.	1C	2E/	.
.	.	[2A/	.
=5	=5	=5	=5
0.r	2F/	2A/]	0.r
.	2.G/	2.B\	.
.	4F/	4G/	.
.	4E/	1d	.
.	4D/	.	.
.	1E	.	.
.	.	2c\	.
=6	=6	=6	=6
0.r	1G	2B\	1d
.	.	2G/	.
.	2F/	2A/	1f
.	2D/	1d	.
.	1E	.	1g
.	.	[2c\	.
=7	=7	=7	=7
1AA	1r	4c\]	1a
.	.	4B\	.
.	.	2A/	.
1C	1e	2G/	1r
.	.	2E/	.
1D	1d	1F	1a
=8	=8	=8	=8
1E	2B\	1E	2.g/
.	1c	.	.
.	.	.	4f/
1r	.	2C/	2e/
.	2d\	1G	1d
1E	1G#	.	.
.	.	2E/	2c#i/
=9	=9	=9	=9
2.D\	1A	2F/	1d
.	.	2A/	.
4C/	.	.	.
2BB/	2D/	2B\	1r
1AA	2E/	2.c\	.
.	2F/	.	1r
.	.	4A/	.
2GG/	2G/	[2d\	.
=10	=10	=10	=10
1AA	1E	2d\]	1r
.	.	2c#i\	.
1r	1D	1d	1f
1r	1G	1B	1d
=11	=11	=11	=11
1r	1A	2A/	2.c/
.	.	2.c\	.
.	.	.	4d/
1C	2G/	.	1e
.	.	4A/	.
.	1G	4c\	.
.	.	4d\	.
1AA	.	2e\	1c
.	2F#i/	4d\	.
.	.	4c\	.
=12	=12	=12	=12
2.GG/	1G	2B\	1d
.	.	2.G/	.
4AA/	.	.	.
1BB	1.d	.	1r
.	.	4F/	.
.	.	1D	.
1GG	.	.	1r
.	2B\	2G/	.
=13	=13	=13	=13
1AA	1e	2E/	1c
.	.	2A/	.
1r	1d	2B\	2d/
.	.	2d\	2f/
1r	1A	1c	2.e/
.	.	.	4f/
=14	=14	=14	=14
1GG	1B	1d	1g
2AA/	2A/	1r	1c
2C/	2.G/	.	.
2.BB/	.	1r	1d
.	4F/	.	.
.	4D/	.	.
4C/	4E/	.	.
=15	=15	=15	=15
1D	4F/	1.d	2r
.	4G/	.	.
.	2A/	.	2f/
1GG	4B\	.	4g/
.	4A/	.	4f/
.	4G/	2c\	1d
.	4F/	.	.
1AA	1E	[1Al	.
.	.	.	2c#i/
=16	=16	=16	=16
0.Dl	0.Dl	0.A]	0.dl
!!LO:LB:i:g=z
=17||	=17||	=17||	=17||
*>B	*>B	*>B	*>B
*clefF4	*clefGv2	*clefGv2	*clefG2
*k[]	*k[]	*k[]	*k[]
*M2/1	*M2/1	*M2/1	*M2/1
*met(C|)	*met(C|)	*met(C|)	*met(C|)
!!section: Christe
!!!OMD: Christe
0r	[0A	1A	0r
.	.	2.c\	.
.	.	4B\	.
=18	=18	=18	=18
0r	0A_	4A/	0r
.	.	4G/	.
.	.	2F/	.
.	.	2.c\	.
.	.	4d\	.
=19	=19	=19	=19
1AA	0A_	4e\	0r
.	.	4f\	.
.	.	2e\	.
2.D\	.	1d	.
4E\	.	.	.
=20	=20	=20	=20
2.F\	0A]	1c	0r
4E\	.	.	.
4D\	.	2r	.
4C/	.	.	.
[2D\	.	[2F/	.
=21	=21	=21	=21
2D\]	0A	4F/]	0r
.	.	4G/	.
4C/	.	4A/	.
4BB/	.	4B\	.
1AA	.	1c	.
=22	=22	=22	=22
2BB/	0G	2d\	0r
1C	.	1e	.
4BB/	.	4d\	.
4AA/	.	4c\	.
=23	=23	=23	=23
1GG	1.B-i	1d	0r
1GG	.	2.G/	.
.	2A/	.	.
.	.	4A/	.
=24	=24	=24	=24
2r	1G	4B-\	0r
.	.	4c\	.
1BB-i	.	1d	.
.	1F	.	.
2AA/	.	2c\	.
=25	=25	=25	=25
2GG/	2G/	2B-i\	0r
2FF/	2.c\	2A/	.
1C	.	2G/	.
.	4B-i\	.	.
.	4A/	2c\	.
.	4G/	.	.
=26	=26	=26	=26
2D\	2B-i\	2F/	0r
2AA/	1A	1E	.
1BB-i	.	.	.
.	2G/	2D/	.
=27	=27	=27	=27
1AA	0A	2E/	0r
.	.	2.F/	.
1r	.	.	.
.	.	4G/	.
.	.	4A/	.
.	.	4B\	.
=28	=28	=28	=28
1A	0r	2c\	0r
.	.	2F/	.
2A\	.	2.c\	.
[2A\	.	.	.
.	.	4d\	.
=29	=29	=29	=29
2A\]	0r	4e\	0r
.	.	4f\	.
2G\	.	2.e\	.
2A\	.	.	.
.	.	4d\	.
2G\	.	4c\	.
.	.	4B\	.
=30	=30	=30	=30
2A\	0r	2A/	0r
2F\	.	1d	.
1E	.	.	.
.	.	2c#i\	.
=31	=31	=31	=31
0D	1r	1d	[0a
.	1A	1f	.
=32	=32	=32	=32
0AA	0c	0e	0a_
=33	=33	=33	=33
1D	1d	0f	0a_
[1F	1c	.	.
=34	=34	=34	=34
2F\]	1d	1r	0a]
2E\	.	.	.
1D	2r	2r	.
.	[2D/	[2f\	.
=35	=35	=35	=35
0r	2D/]	4f\]	0a
.	.	4e\	.
.	2E/	4d\	.
.	.	4c\	.
.	1F	1d	.
=36	=36	=36	=36
0C	1.E	0e	0g
.	2F/	.	.
=37	=37	=37	=37
1GG	1.G	0d	1.b-
1G	.	.	.
.	2A/	.	2a/
=38	=38	=38	=38
1E	2B\	1G	1g
.	2c\	.	.
1D	1d	2.A/	1f#i
.	.	4B\	.
=39	=39	=39	=39
0C	1e	4c\	2g/
.	.	4d\	.
.	.	4e\	2.cc\
.	.	4f\	.
.	2r	1g	.
.	.	.	4b\
.	2e\	.	4a/
.	.	.	4g/
=40	=40	=40	=40
1D	2.d\	1f	2b\
.	.	.	1a
.	4c\	.	.
1E	1B	[1el	.
.	.	.	2g#i/
=41	=41	=41	=41
0AAl	0Al	0e]	0al
!!LO:LB:i:g=z
=42||	=42||	=42||	=42||
*>C	*>C	*>C	*>C
*clefF4	*clefGv2	*clefGv2	*clefG2
*k[]	*k[]	*k[]	*k[]
*M3/1	*M3/1	*M3/1	*M3/1
*met(O)	*met(O)	*met(O)	*met(O)
!!section: Kyrie II
!!!OMD: Kyrie II
0.r	0.r	1A	0.r
.	.	1c	.
.	.	1d	.
=43	=43	=43	=43
0.r	2.A/	2.c\	0.r
.	4B\	4B\	.
.	2c\	2A/	.
.	1d	2G/	.
.	.	1A	.
.	2c\	.	.
=44	=44	=44	=44
0.r	2.d\	1f	2.a/
.	4c\	.	4b\
.	2A/	2e\	2cc\
.	2B\	2d\	1dd
.	1A	1e	.
.	.	.	2cc#i\
=45	=45	=45	=45
2.D\	1D	1d	2.dd\
4E\	.	.	4cc\
2F\	1r	2.d\	2a/
1G	.	.	2b\
.	.	4e\	.
.	1r	4f\	1a
.	.	4e\	.
2F#i\	.	4d\	.
.	.	4c\	.
=46	=46	=46	=46
1G	1G	2B\	1d
.	.	1G	.
1D	1A	.	1r
.	.	2F#i/	.
1GG	[1B	1G	1r
=47	=47	=47	=47
2r	1B]	2.d\	1g
2G\	.	.	.
.	.	4e\	.
1F	1A	2f\	1a
.	.	2c\	.
2D\	2r	2d\	[1b-i
[2E-i\	[2G/	[2B-\	.
=48	=48	=48	=48
4E-\]	4G/]	4B-\]	1b-]
4D\	4F/	4c\	.
4BB-i/	2D/	1.d	.
4C/	.	.	.
1D	1F	.	1a
[1C	1E	2G/	2r
.	.	[2c\	[2g/
=49	=49	=49	=49
2C/]	1r	2c\]	4g/]
.	.	.	4f/
2.BB-/	.	1d	2d/
.	1D	.	1f
4C/	.	.	.
2D\	.	2d\	.
1AA	[1A	[1c	1e
=50	=50	=50	=50
2r	1A]	1c]	1r
2A\	.	.	.
1G	1B	2.d\	1d
.	.	4e\	.
2F\	2c\	2f\	[1a
2D\	[2d\	4F/	.
.	.	4G/	.
=51	=51	=51	=51
1F	4d\]	4A/	1a]
.	4c\	4B\	.
.	1A	4c\	.
.	.	4d\	.
1E	.	1e	1b
.	2G/	.	.
1r	2A/	2c\	2cc\
.	2G/	2G/	[2dd\
=52	=52	=52	=52
1r	1F	1A	4dd\]
.	.	.	4cc\
.	.	.	1a
2r	1E	1B	.
2E\	.	.	2g/
2F\	1r	2A/	2a/
2C/	.	[2c\	2g/
=53	=53	=53	=53
1D	1r	2c\]	1f
.	.	2B\	.
1AA	1A	1c	1e
1C	1G	2r	1r
.	.	[2c\	.
=54	=54	=54	=54
1r	2F/	4c\]	1r
.	.	4d\	.
.	2E/	1e	.
1r	1F	.	1a
.	.	2d\	.
1C	1E	1e	1g
=55	=55	=55	=55
2D\	2r	2A/	2f/
2C/	1A	2c\	2e/
1D	.	1F	1f
.	2B\	.	.
1C	2.c\	1G	1e
.	4B\	.	.
=56	=56	=56	=56
1.D	4A/	2F/	2r
.	4G/	.	.
.	1F	2D/	1a
.	.	1d	.
2BB/	2G/	.	2b\
1AA	1A	1e	2.cc\
.	.	.	4b\
=57	=57	=57	=57
1D	1r	2f\	4a/
.	.	.	4g/
.	.	2.d\	1f
1r	2D/	.	.
.	.	4c\	.
.	2E/	2B\	2g/
1D	1F	1A	1a
=58	=58	=58	=58
2C/	2E/	1c	1r
2AA/	2C/	.	.
2GG/	2.G/	2.B\	2d/
2G\	.	.	2e/
.	8F/L	4c\	.
.	8E/J	.	.
2A\	1D	1d	1f
2F\	.	.	.
=59	=59	=59	=59
2.c\	1r	1A	2e/
.	.	.	2c/
8B\L	.	.	.
8A\J	.	.	.
1G	1E	1r	2.g/
.	.	.	8f/L
.	.	.	8e/J
1r	2F/	2A/	1d
.	2G/	2B\	.
=60	=60	=60	=60
1F	1A	0c	1r
1C	2r	.	1e
.	2.A/	.	.
2D\	.	2A/	2f/
.	4G/	.	.
2C/	2E/	[2c\	2g/
=61	=61	=61	=61
2.FF/	2.F/	2c\]	1a
.	.	1c	.
4GG/	4E/	.	.
2AA/	2C/	.	2r
2FF/	1D	[1.A	2.a/
1AA	.	.	.
.	.	.	4g/
.	2C/	.	2e/
=62	=62	=62	=62
2r	1D	2A/]	2.f/
2D\	.	2F/	.
.	.	.	4e/
2AA/	2F/	2E/	2c/
2BB/	2G/	2D/	1d
1AA	[1A	1E	.
.	.	.	2c#i/
=63	=63	=63	=63
0.Dl	1A]	0D	0.dl
.	0Dl	.	.
.	.	1Al	.
==	==	==	==
*-	*-	*-	*-
!!!RDF**kern: l=long note in original notation
!!!RDF**kern: i=editorial accidental
!!!ENC:	Jesse Rodin 2003/2013
!!!END:	2013/05/06/
!!!EED:	Jesse Rodin
!!!EEV:	2013/08/10/
!!!ONB:	Translated from MusicXML and edited on 2013/08/10/ by Craig Sapp
!!muse2ps: C^@{COM}^i2I150v85,85,85,150c160
